src/assets/images/brands/pixar.svg

<svg height="27" viewBox="0 0 129 27" width="129" xmlns="http://www.w3.org/2000/svg"><path d="m10.032422 23.264164c1.423513.186472 2.86187.308685 4.27678.453121l.409907 1.728508c-2.365589-.148172-4.791645-.182731-7.169575-.182731-2.264316 0-4.573074.025907-6.833704.182731l.325938-1.724771c1.190193-.15186 2.382845-.253134 3.580462-.444466.108646-2.08655.12718-8.579519.12718-11.532782v-1.354391c0-1.006233-.018534-6.359644-.12718-8.06711-1.188965-.248167-2.426057-.300031-3.627361-.408678l-.244479-1.68161 8.475787-.030823c3.719981 0 6.955969.296296 8.728869 1.019801 3.270599 1.363044 3.654548 3.658235 3.654548 4.6595 0 5.949736-5.832438 8.663486-10.910496 9.369686l.212375-1.855637c3.075478-.766721 5.318803-2.482891 5.318803-6.280645 0-1.903818-.937062-3.419949-2.477924-4.186667-.911154-.448154-2.361851-.653106-3.724896-.696319-.099992 1.550691-.1259 5.667011-.1259 8.25358v1.442046c0 2.648315.025908 9.473367.130866 11.337657zm24.46926.017309c1.171662.208635 2.369278.317282 3.536022.435812l.414818 1.750729c-2.413715-.23086-4.979294-.204952-7.383129-.204952-1.98159 0-3.980488.06052-5.941084.182731l.330906-1.750728c1.180309-.060469 2.386528-.227177 3.554501-.427161.122215-1.929777.156828-7.569602.156828-10.662333v-2.012464c0-1.035877-.034613-6.475714-.139523-8.240013-1.185278-.178995-2.356935-.313599-3.532331-.439499l-.409909-1.76061c2.417456.261734 5.043499.218521 7.443648.218521 1.955684 0 3.985405.003736 5.937401-.222208l-.432126 1.764297c-1.180313.1259-2.36436.322252-3.540939.474112-.086426 1.193878-.12595 4.643472-.12595 8.384395v2.103856c0 4.054521.039524 9.020246.130867 10.405515zm24.604065-3.671804c-1.819847-2.151984-3.375503-4.124921-4.26321-5.179333-1.211186 1.638397-4.190353 6.316433-5.532406 8.911654.837071.156774 1.672905.292606 2.522366.379032l.239513 1.676645h-.570419c-.544457 0-3.458195-.134605-5.41388-.134605-1.490173 0-2.94461.077772-4.438522.1963l.579071-1.73834c.758068-.108647 1.585255-.187697 2.295193-.456858 1.455612-.980272 7.312732-8.742435 8.85482-10.719111-1.184052-1.516132-2.77795-3.606369-4.285435-5.549713-1.545776-1.976623-2.984134-3.784135-3.754543-4.621254-.780285-.239513-1.598869-.343193-2.391495-.49633l-.248165-1.759333c1.877911.313601 3.954529.253083 5.815132.253083 2.138417 0 4.290402-.079003 6.428765-.170344l-.501248 1.712433c-.835838.091341-1.672958.19507-2.503826.356814.940746 1.511163 3.431057 5.186704 4.519974 6.646055 1.159324-1.571684 3.480469-4.90398 4.491619-6.659624l-.601292-.122267c-.50616-.091341-1.006183-.169113-1.493911-.243198l-.33582-1.71617c1.781601.148173 3.580464.196301 5.383057.196301 1.367958 0 2.735916-.079003 4.103928-.196301l-.161736 1.676644c-.806252.208639-1.611214.356811-2.43103.558078l-.277756.277758c-1.193932 1.116108-2.2742 2.370506-3.349602 3.58543-1.576595 1.785288-3.192776 3.666834-3.928619 4.538513 3.780498 5.174366 7.483169 10.435158 11.363617 15.518183l-2.756966.544462c-2.701355-2.04211-5.16571-4.721248-7.357174-7.264604zm31.20277 3.706363c-1.035881-3.018695-1.955688-6.175632-3.235984-9.107903-1.506256.030874-5.679306.222207-7.195435.392601-.391426 1.237093-1.781608 6.184285-2.20385 8.715302.919808.213606 1.87294.296343 2.810059.401253l.330856 1.728508c-2.026039-.122211-4.076752-.182731-6.094177-.182731-1.519814 0-3.044601.06052-4.55085.1963l.243195-1.742077c1.028457-.10491 2.034683-.244428 3.044609-.453121 1.337127-2.635925 6.960876-17.762735 8.170837-21.007324-.839531-.16548-1.676643-.251904-2.517403-.353127l-.069168-1.714941c1.742073.1173 3.518715.182734 5.274407.182734 2.243332 0 4.516296-.025908 6.738632-.182734l-.249397 1.714941c-.801285.09257-1.611206.187647-2.398926.366696.60498 1.947029 2.242149 6.65097 3.427376 9.886959.927231 2.569315 2.948303 8.065881 4.499046 11.106796 1.040787.203724 2.072929.334591 3.118683.470427l.253082 1.771722c-2.051941-.343246-4.54348-.243251-6.581856-.243251-2.121101 0-4.298996.025907-6.420097.1963l.409897-1.750729c1.075355-.096258 2.133446-.187648 3.196464-.392601zm15.485054-20.962938c-1.190185-.174078-2.426109-.261734-3.6249-.361727l-.239518-1.698864 8.258446-.034559c3.205162 0 7.70047.034559 10.135185 1.001265 1.94703.771684 3.244584 2.212503 3.244584 4.352096 0 2.307579-2.42109 5.091677-4.952103 6.646055 2.408752 4.071879 7.012749 10.453694 10.100571 13.72424l-2.939698.396339c-2.451973-1.128446-9.986961-9.669668-12.152504-12.28711-.940803.07035-1.907516.148174-2.552009.170395v.400023c0 2.051939.056778 6.733711.148163 8.646132 1.159324.191385 2.351974.304996 3.528602.409906l.330857 1.742077c-2.138375-.17408-4.347138-.1963-6.48555-.1963-2.212449 0-4.507645 0-6.711487.1963l.325935-1.750729c1.193932-.096258 2.413712-.201215 3.575539-.42716.104919-1.695181.144439-7.565865.144439-10.849981v-2.081635c0-1.150669-.03952-6.533674-.134552-7.996763zm-22.174324 1.585304c-.985244 2.717436-2.365539 6.468239-2.932273 8.114061l5.749702.104909c-.709885-2.121113-2.060593-5.937348-2.817429-8.21897zm30.936524 7.652289c1.372925-.504985 3.563156-1.950716 3.563156-5.021279 0-1.733423-1.52478-4.195322-6.902878-4.338527-.087646 1.972938-.144424 7.226354-.144424 9.425239v.544461c1.080307-.030875 2.277923-.165428 3.484146-.609894z"/></svg>

<?xml version="1.0" encoding="UTF-8"?>
<!-- Generated by Pixelmator Pro 3.6.14 -->
<svg width="129" height="27" viewBox="0 0 129 27" xmlns="http://www.w3.org/2000/svg">
    <path id="pixar" fill="#000000" fillRule="evenodd" stroke="none" d="M 10.032422 23.264164 C 11.455935 23.450636 12.894292 23.572849 14.309202 23.717285 L 14.719109 25.445793 C 12.35352 25.297621 9.927464 25.263062 7.549534 25.263062 C 5.285218 25.263062 2.97646 25.288969 0.71583 25.445793 L 1.041768 23.721022 C 2.231961 23.569162 3.424613 23.467888 4.62223 23.276556 C 4.730876 21.190006 4.74941 14.697037 4.74941 11.743774 L 4.74941 10.389383 C 4.74941 9.38315 4.730876 4.029739 4.62223 2.322273 C 3.433265 2.074106 2.196173 2.022242 0.994869 1.913595 L 0.75039 0.231985 L 9.226177 0.201162 C 12.946158 0.201162 16.182146 0.497458 17.955046 1.220963 C 21.225645 2.584007 21.609594 4.879198 21.609594 5.880463 C 21.609594 11.830199 15.777156 14.543949 10.699098 15.250149 L 10.911473 13.394512 C 13.986951 12.627791 16.230276 10.911621 16.230276 7.113867 C 16.230276 5.210049 15.293214 3.693918 13.752352 2.9272 C 12.841198 2.479046 11.390501 2.274094 10.027456 2.230881 C 9.927464 3.781572 9.901556 7.897892 9.901556 10.484461 L 9.901556 11.926507 C 9.901556 14.574822 9.927464 21.399874 10.032422 23.264164 Z M 34.501682 23.281473 C 35.673344 23.490108 36.87096 23.598755 38.037704 23.717285 L 38.452522 25.468014 C 36.038807 25.237154 33.473228 25.263062 31.069393 25.263062 C 29.087803 25.263062 27.088905 25.323582 25.128309 25.445793 L 25.459215 23.695065 C 26.639524 23.634596 27.845743 23.467888 29.013716 23.267904 C 29.135931 21.338127 29.170544 15.698302 29.170544 12.605571 L 29.170544 10.593107 C 29.170544 9.55723 29.135931 4.117393 29.031021 2.353094 C 27.845743 2.174099 26.674086 2.039495 25.49869 1.913595 L 25.088781 0.152985 C 27.506237 0.414719 30.13228 0.371506 32.532429 0.371506 C 34.488113 0.371506 36.517834 0.375242 38.46983 0.149298 L 38.037704 1.913595 C 36.857391 2.039495 35.673344 2.235847 34.496765 2.387707 C 34.410339 3.581585 34.370815 7.031179 34.370815 10.772102 L 34.370815 12.875958 C 34.370815 16.930479 34.410339 21.896204 34.501682 23.281473 Z M 59.105747 19.609669 C 57.2859 17.457685 55.730244 15.484748 54.842537 14.430336 C 53.631351 16.068733 50.652184 20.746769 49.310131 23.34199 C 50.147202 23.498764 50.983036 23.634596 51.832497 23.721022 L 52.07201 25.397667 L 51.501591 25.397667 C 50.957134 25.397667 48.043396 25.263062 46.087711 25.263062 C 44.597538 25.263062 43.143101 25.340834 41.649189 25.459362 L 42.22826 23.721022 C 42.986328 23.612375 43.813515 23.533325 44.523453 23.264164 C 45.979065 22.283892 51.836185 14.521729 53.378273 12.545053 C 52.194221 11.028921 50.600323 8.938684 49.092838 6.99534 C 47.547062 5.018717 46.108704 3.211205 45.338295 2.374086 C 44.55801 2.134573 43.739426 2.030893 42.9468 1.877756 L 42.698635 0.118423 C 44.576546 0.432024 46.653164 0.371506 48.513767 0.371506 C 50.652184 0.371506 52.804169 0.292503 54.942532 0.201162 L 54.441284 1.913595 C 53.605446 2.004936 52.768326 2.108665 51.937458 2.270409 C 52.878204 3.781572 55.368515 7.457113 56.457432 8.916464 C 57.616756 7.34478 59.937901 4.012484 60.949051 2.25684 L 60.347759 2.134573 C 59.841599 2.043232 59.341576 1.96546 58.853848 1.891375 L 58.518028 0.175205 C 60.299629 0.323378 62.098492 0.371506 63.901085 0.371506 C 65.269043 0.371506 66.637001 0.292503 68.005013 0.175205 L 67.843277 1.851849 C 67.037025 2.060488 66.232063 2.20866 65.412247 2.409927 L 65.134491 2.687685 C 63.940559 3.803793 62.860291 5.058191 61.784889 6.273115 C 60.208294 8.058403 58.592113 9.939949 57.85627 10.811628 C 61.636768 15.985994 65.339439 21.246786 69.219887 26.329811 L 66.462921 26.874273 C 63.761566 24.832163 61.297211 22.153025 59.105747 19.609669 L 59.105747 19.609669 Z M 90.308517 23.316032 C 89.272636 20.297337 88.352829 17.1404 87.072533 14.208129 C 85.566277 14.239003 81.393227 14.430336 79.877098 14.60073 C 79.485672 15.837823 78.09549 20.785015 77.673248 23.316032 C 78.593056 23.529638 79.546188 23.612375 80.483307 23.717285 L 80.814163 25.445793 C 78.788124 25.323582 76.737411 25.263062 74.719986 25.263062 C 73.200172 25.263062 71.675385 25.323582 70.169136 25.459362 L 70.412331 23.717285 C 71.440788 23.612375 72.447014 23.472857 73.45694 23.264164 C 74.794067 20.628239 80.417816 5.501429 81.627777 2.25684 C 80.788246 2.09136 79.951134 2.004936 79.110374 1.903713 L 79.041206 0.188772 C 80.783279 0.306072 82.559921 0.371506 84.315613 0.371506 C 86.558945 0.371506 88.831909 0.345598 91.054245 0.188772 L 90.804848 1.903713 C 90.003563 1.996283 89.193642 2.09136 88.405922 2.270409 C 89.010902 4.217438 90.648071 8.921379 91.833298 12.157368 C 92.760529 14.726683 94.781601 20.223249 96.332344 23.264164 C 97.373131 23.467888 98.405273 23.598755 99.451027 23.734591 L 99.704109 25.506313 C 97.652168 25.163067 95.160629 25.263062 93.122253 25.263062 C 91.001152 25.263062 88.823257 25.288969 86.702156 25.459362 L 87.112053 23.708633 C 88.187408 23.612375 89.245499 23.520985 90.308517 23.316032 L 90.308517 23.316032 Z M 105.793571 2.353094 C 104.603386 2.179016 103.367462 2.09136 102.168671 1.991367 L 101.929153 0.292503 L 110.187599 0.257944 C 113.392761 0.257944 117.888069 0.292503 120.322784 1.259209 C 122.269814 2.030893 123.567368 3.471712 123.567368 5.611305 C 123.567368 7.918884 121.146278 10.702982 118.615265 12.25736 C 121.024017 16.329239 125.628014 22.711054 128.715836 25.9816 L 125.776138 26.377939 C 123.324165 25.249493 115.789177 16.708271 113.623634 14.090829 C 112.682831 14.161179 111.716118 14.239003 111.071625 14.261224 L 111.071625 14.661247 C 111.071625 16.713186 111.128403 21.394958 111.219788 23.307379 C 112.379112 23.498764 113.571762 23.612375 114.74839 23.717285 L 115.079247 25.459362 C 112.940872 25.285282 110.732109 25.263062 108.593697 25.263062 C 106.381248 25.263062 104.086052 25.263062 101.88221 25.459362 L 102.208145 23.708633 C 103.402077 23.612375 104.621857 23.507418 105.783684 23.281473 C 105.888603 21.586292 105.928123 15.715608 105.928123 12.431492 L 105.928123 10.349857 C 105.928123 9.199188 105.888603 3.816183 105.793571 2.353094 L 105.793571 2.353094 Z M 83.619247 3.938398 C 82.634003 6.655834 81.253708 10.406637 80.686974 12.052459 L 86.436676 12.157368 C 85.726791 10.036255 84.376083 6.22002 83.619247 3.938398 Z M 114.555771 11.590687 C 115.928696 11.085702 118.118927 9.639971 118.118927 6.569408 C 118.118927 4.835985 116.594147 2.374086 111.216049 2.230881 C 111.128403 4.203819 111.071625 9.457235 111.071625 11.65612 L 111.071625 12.200581 C 112.151932 12.169706 113.349548 12.035153 114.555771 11.590687 Z"/>
</svg>
